X:1
T:ЯБЪЛКО ЗЛАТНА
T:Асен Карастоянов
%%score ( 1 2 ) ( 3 4 ) { ( 5 7 ) | 6 }
L:1/8
M:7/16
K:G
V:1 treble nm="Сопрани+Алти" snm="С.+А."
V:2 treble 
V:3 treble nm="Баритон" snm="Б."
V:4 treble 
V:5 treble nm="Piano" snm="Pno"
V:7 treble 
V:6 bass 
V:1
 z7/2 | z7/2 | z7/2 | z7/2 | z7/2 | z7/2 | z7/2 | z7/2 ||S z7/2 | z7/2 |"^Соло" B c d3/2 | %11
w: ||||||||||1.Я- бъл- ко,|
 d2 c3/2 | B _A G3/2 | B c d3/2 | d2 =f3/2 | _e (e/d/) d3/2 | B c d3/2 | c2 B3/2 | %18
w: злат- на|я- бъл- ко,|я- бъл- ко,|дър- во|ху- ба- * во!|Из- раст- на-|ла е|
 (_A/B/) (A/G/) =F3/2 | d c B3/2 | _A2 B3/2 | (_AG) G3/2 | (G2 G3/2) |!f!"^Хор""^1" B c d3/2 | %24
w: я- * бъл- * ка|сре- ди ми|го- ра|зе- * ле|на. *|Из- раст- на-|
 c2 B3/2 | (_A/B/) (A/G/) =F3/2 | d c B3/2 | _A2 B3/2 | (_AG) G3/2 | (g2 (g3/2) | (g2) g3/2) | %31
w: ла е|я- * бъл- * ка|сре- ди ми|го- ра|зе- * ле-|на. *||
"^Соло""^2" g g d3/2 | _e/ d/ c/ e/ d3/2 | c/ d/ c/ B/ _A/ G/ =F/ | G/ _A/ B/ c/ d/ c/ d/ | %35
w: Да да да|да га да га да|да га да га да га да|да га да га да га да|
 g g d3/2 | _e/ d/ c/ e/ d3/2 | c/ d/ c/ B/ _A/ G/ =F/ | G G G3/2 |!f!"^Хор""^3" g g d3/2 | %40
w: да да да|да га да га да|да га да га да га да|да да да|Да да да|
 _e/ d/ c/ e/ d3/2 | c/ d/ c/ B/ _A/ G/ =F/ | G/ _A/ B/ c/ d/ c/ d/ | g g d3/2 | %44
w: да га да га да|да га да га да га да|||
 _e/ d/ c/ e/ d3/2 | c/ d/ c/ B/ _A/ G/ =F/ | G G G3/2 |!f!"^Соло""^4" B/ d/ c/ B/ _A/ G/ =F/ | %48
w: ||да да да|да га да га да га да|
 G/ _A/ B/ c/ d/ c/ d/ | B/ d/ c/ B/ _A/ G/ =F/ | G d d3/2 | B/ d/ c/ B/ _A/ G/ =F/ | %52
w: да га да га да га да|да га да га да га да|да да да|да га да га да га да|
 G/ _A/ B/ c/ d/ c/ d/ | B/ d/ c/ B/ _A/ G/ =F/ | G G G3/2 |"^Хор""^5" B/ d/ c/ B/ _A/ G/ =F/ | %56
w: да га да га да га да|да га да га да га да|да да да||
 G/ _A/ B/ c/ d/ c/ d/ | B/ d/ c/ B/ _A/ G/ =F/ | G d d3/2 | g2 g3/2 | g2 g3/2 | g2 g3/2 | %62
w: да га да га да га да||||||
 g2 g3/2 :| g g g3/2 |] %64
w: ||
V:2
 x7/2 | x7/2 | x7/2 | x7/2 | x7/2 | x7/2 | x7/2 | x7/2 || x7/2 | x7/2 | x7/2 | x7/2 | x7/2 | x7/2 | %14
w: ||||||||||||||
 x7/2 | x7/2 | x7/2 | x7/2 | x7/2 | x7/2 | x7/2 | x7/2 | x7/2 | G A B3/2 | G2 =F3/2 | _E E E3/2 | %26
w: ||||||||||||
 _A G =F3/2 | =F2 F3/2 | (_AG) G3/2 | (d2 (d3/2) | (d2) d3/2) | x7/2 | x7/2 | x7/2 | x7/2 | x7/2 | %36
w: ||||||||||
 x7/2 | x7/2 | x7/2 | B B B3/2 | _e/ d/ c/ e/ d3/2 | c/ d/ c/ B/ _A/ G/ =F/ | %42
w: |||Да да да|||
 G/ _A/ B/ c/ d/ c/ d/ | B B B3/2 | _e/ d/ c/ e/ d3/2 | c/ d/ c/ B/ _A/ G/ =F/ | x7/2 | x7/2 | %48
w: да га да га да га да|да да да|да га да га да|да га да га да га да|||
 x7/2 | x7/2 | x7/2 | x7/2 | x7/2 | x7/2 | x7/2 | B/ d/ c/ B/ _A/ G/ =F/ | G/ _A/ B/ c/ d/ c/ d/ | %57
w: |||||||да га да га да га да||
 B/ d/ c/ B/ _A/ G/ =F/ | G d d3/2 | g2 g3/2 | g2 g3/2 | g2 g3/2 | g2 g3/2 :| g g g3/2 |] %64
w: да га да га да га да|да да да|||||И- ха- ха!|
V:3
 z7/2 | z7/2 | z7/2 | z7/2 | z7/2 | z7/2 | z7/2 | z7/2 || z7/2 | z7/2 | z7/2 | z7/2 | z7/2 | z7/2 | %14
w: ||||||||||||||
 z7/2 | z7/2 | z7/2 | z7/2 | z7/2 | z7/2 | z7/2 | z7/2 | z7/2 | G G G3/2 | _E2 D3/2 | C C C3/2 | %26
w: |||||||||Из- раст- на-|ла е|я- бъл- ка|
 =F _E D3/2 | D2 D3/2 | _AG G3/2 | (B2 (B3/2) | (B2) B3/2) | z7/2 | z7/2 | z7/2 | z7/2 | z7/2 | %36
w: |го- ра|зе- * ле-|на *|||||||
 z7/2 | z7/2 | z7/2 |!f! G G G3/2 | G G G3/2 | G G =F3/2 | G/ _A/ B/ c/ d/ c/ d/ | G G G3/2 | %44
w: |||да да да|да да да|да да да|да га да га да га да|да да да|
 G G G3/2 | G G =F3/2 | G G G3/2 | z7/2 | z7/2 | z7/2 | z7/2 | z7/2 | z7/2 | z7/2 | z7/2 | %55
w: да да да|да да да|да да да|||||||||
 G G _A/ G/ =F/ | (G2 G3/2) | B/ d/ c/ B/ _A/ G/ =F/ | G d d3/2 | B/ d/ c/ B/ _A/ G/ =F/ | %60
w: да да да га да|да *|да га да га да га да|да да да|да га да га да га да|
 G/ A/ B/ c/ d/ c/ d/ | B/ d/ c/ B/ _A/ G/ =F/ | G G G3/2 :| G G G3/2 |] %64
w: да га да га да га да|да га да га да га да|да да да|да да да|
V:4
 x7/2 | x7/2 | x7/2 | x7/2 | x7/2 | x7/2 | x7/2 | x7/2 || x7/2 | x7/2 | x7/2 | x7/2 | x7/2 | x7/2 | %14
w: ||||||||||||||
 x7/2 | x7/2 | x7/2 | x7/2 | x7/2 | x7/2 | x7/2 | x7/2 | x7/2 | x7/2 | x7/2 | x7/2 | =B, C D3/2 | %27
w: ||||||||||||сре- ди ми|
 x7/2 | x7/2 | (G2 (G3/2) | (G2) G3/2) | x7/2 | x7/2 | x7/2 | x7/2 | x7/2 | x7/2 | x7/2 | x7/2 | %39
w: ||||||||||||
 x7/2 | C _E G3/2 | x7/2 | x7/2 | x7/2 | C _E G3/2 | x7/2 | x7/2 | x7/2 | x7/2 | x7/2 | x7/2 | %51
w: |да да да|||||||||||
 x7/2 | x7/2 | x7/2 | x7/2 | x7/2 | x7/2 | x7/2 | x7/2 | x7/2 | x7/2 | x7/2 | x7/2 :| x7/2 |] %64
w: |||||||||||||
V:5
!f!{/f'} [gg'][gg'] [gd']3/2 | _e'/d'/c'/e'/ d'3/2 | c'/d'/c'/b/ _a/g/=f/ | g/_a/b/c'/ d'3/2 | %4
 GD GD/ | GD G3/2 | GF ED/ | EF G3/2 || GG/G/ G/G/G/ | GG/G/ G/G/G/ |!p! GG/G/ G/G/G/ | %11
 GG/G/ G/G/G/ | GG/G/ G/G/G/ | [GB][Ac] d3/2 | d2 [d=f]3/2 | [c_e][ce]/d/ d3/2 | [GB][Ac] [Bd]3/2 | %17
 [_EGc]2 [D=FB]3/2 | [C_E_A][CEG] [CE=F]3/2 | B,/D/_E/G/ =F/D/F/ | [D_A] z z3/2 | _AG G3/2 | %22
 ((([B,DG]2 [B,DG]3/2))) | [GB][Ac] [Bd]3/2 | [_EGc]2 [D=FB]3/2 | [B,_E_A][B,EG] [B,E=F]3/2 | %26
 [=F_Ad][_EGc] [DFB]3/2 | _A2 [=FB]3/2 | _AG G3/2 | ([B,G]/D/G/=A/ B/c/d/) | (g/d/g/a/ b/c'/d'/) | %31
 [gbg'] [DGB] [DGB]3/2 | [_EGc][EGc] [DGB]3/2 | [CG]2 [C=F]3/2 | G/_A/B/c/ d/c/d/ | %35
 [GBg][GBg] [GBd]3/2 | _e/d/c/e/ d3/2 | c/d/c/B/ _A/G/=F/ | G/D/G/=A/ B/c/d/ | g z (G,/A,/B,/ | %40
 C/B,/A,/C/ B,3/2) | (C/B,/C/D/ =F/G/_A/) | (B,/C/D/_E/ =F/E/F/) | G z G,/(A,/B,/ | %44
 C/B,/A,/C/ B,3/2) | C/ (B,/C/D/ =F/G/_A/) | G[B,G][B,G]3/2 |!mf! GG/G/ G/G/G/ | GG/G/ G/G/G/ | %49
 GG/G/ G/G/G/ | GG/G/ G/G/G/ | GG/G/ G/G/G/ | GG/G/G/ G/G/ | GG/G/ G/G/G/ | G[B,G] [B,G]3/2 | %55
 g'/g/g'/g/ g'/g/g'/ | g'/g/g'/g/ g'/g/g'/ | g'/g/g'/g/g'/g/g'/ | [gg'][dd'][dd']3/2 | %59
 g'/g/g'/g/g'/g/g'/ | [Bg']/g/g'/g/ g'/g/g'/ | g'/g/g'/g/g'/g/g'/ | [gg']gg3/2 :| %63
 [gg'][g'g''][g'g'']3/2 |] %64
V:6
 [G,B,D][G,B,D] [G,B,D]3/2 | [C,,C,][_E,,_E,] [G,,G,]3/2 | C/D/C/B,/ _A,/G,/=F,/ | %3
 G,/_A,/B,/C/ D3/2 | [G,,G,]D, [G,,G,]D,/ | [G,,G,]D, [G,,G,]3/2 | [G,,G,][F,,F,] [E,,E,][D,,D,]/ | %7
 [E,,E,][F,,F,] [G,,G,]3/2 || [G,,G,]G,/G,/ G,/G,/G,/ | G,G,/G,/ G,/G,/G,/ | G,G,/G,/ G,/G,/G,/ | %11
 G,G,/G,/ G,/G,/G,/ | [G,,G,][D,,D,] [G,,G,]3/2 | G,G,/G,/ G,/G,/G,/ | G,G,/G,/ G,/G,/G,/ | %15
 C,[_E,,_E,] [G,,G,]3/2 | [G,,G,]G,/G,/ G,/G,/G,/ | C,2 [D,,D,]3/2 | %18
 [=F,,=F,][G,,G,] [_A,,_A,]3/2 | [B,,,B,,][C,,C,] [C,,D,]3/2 | [=F,,=F,]2 [C,,D,]3/2 | %21
 G,G,/G,/ G,/G,/G,/ | G,G,/G,/ G,/G,/G,/ |!f! [G,,G,]D, [G,,G,]3/2 | [C,,C,]2 [D,,D,]3/2 | %25
 [=F,,=F,][G,,G,] [_A,,_A,]3/2 | [B,,,B,,][C,,C,] [D,,D,]3/2 | [=F,,=F,]2 [D,,D,]3/2 | %28
 [G,,G,]D, [G,,G,]D,/ | [G,,G,]D, [G,,G,]D,/ | [G,,G,]D, [G,,G,]D,/ | [G,,G,] [G,,G,] [G,,G,]3/2 | %32
 [C,,C,][_E,,_E,] [G,,G,]3/2 | [_E,,_E,]2 [=F,,=F,]3/2 | G,/_A,/B,/C/ D/C/D/ | G,G, [G,,G,]3/2 | %36
 [C,,C,][_E,,E,][G,,G,]3/2 | [_E,,_E,]2 [=F,,=F,]3/2 | [G,,G,]/D,/G,/A,/ B,/C/D/ | G z z3/2 | %40
 [C,,C,][_E,,_E,] [G,,G,]3/2 | [_E,,_E,] z [=F,,=F,]3/2 | [G,,G,] z z3/2 | [G,,G,] z z3/2 | %44
 [C,,C,][_E,,_E,] [G,,G,]3/2 | [_E,,_E,] z [=F,,=F,]3/2 | [G,,G,][G,,D,G,][G,,D,G,]3/2 | %47
 [G,,G,]D, [G,,G,]D,/ | [G,,G,]D, [G,,G,]D,/ | [G,,G,]D, [G,,G,]D,/ | [G,,G,]D, [G,,G,]D,/ | %51
 [G,,G,]D, [G,,G,]D,/ | [G,,G,]D, [G,,G,]D,/ | [G,,G,]D, [G,,G,]D,/ | %54
 [G,,G,][G,,D,G,] [G,,D,G,]3/2 |!f! [G,,G,]D, [G,,G,]D,/ | [G,,G,]D, [G,,G,]D,/ | %57
 [G,,G,]D, [G,,G,]D,/ | [G,,G,] [G,D] [G,D]3/2 | [G,,G,]D, [G,,G,][D,B,]/ | [G,,G,]D, [G,,G,]D,/ | %61
 [G,,G,]D, [G,,G,]D,/ | [G,,G,][G,B,D][G,B,D]3/2 :| [G,,G,][G,,G,][G,,,G,,]3/2 |] %64
V:7
 x7/2 | gg g3/2 | x7/2 | x7/2 | x7/2 | x7/2 | x7/2 | x7/2 || x7/2 | x7/2 | x7/2 | x7/2 | x7/2 | %13
 [DG][DG] [DGB]3/2 | ([GB]2 G3/2) | GG [GB]3/2 | [DG][DG] [DG]3/2 | x7/2 | x7/2 | x7/2 | x7/2 | %21
 [A,D]2 [B,D]3/2 | x7/2 | D[DG] [DG]3/2 | x7/2 | x7/2 | x7/2 | D2 D3/2 | [A,D][A,D] [B,D]3/2 | %29
 x7/2 | x7/2 | x7/2 | x7/2 | x7/2 | x7/2 | x7/2 | GG G3/2 | x7/2 | x7/2 | x7/2 | x7/2 | x7/2 | %42
 x7/2 | x7/2 | x7/2 | x7/2 | x7/2 | x7/2 | x7/2 | x7/2 | x7/2 | x7/2 | x7/2 | x7/2 | x7/2 | x7/2 | %56
 x7/2 | x7/2 | x7/2 | x7/2 | x7/2 | x7/2 | x7/2 :| x7/2 |] %64

